public/images/stack-items/cms-icon.svg

<svg height="36" viewBox="0 0 36 36" width="36" xmlns="http://www.w3.org/2000/svg"><path d="m37.1875 52.8275862h1.1875v1.1724138h-2.375v-17h19v12.8965517h-1.1875v-11.7241379h-16.625zm17.6400862 15.9849138h-14.6551724v-16.625h11.7241379v-1.1875h-12.8965517v19h17v-2.375h-1.1724138zm14.7974138-18.8125v1.1724138h1.1875v14.6551724h-16.625v-11.7241379h-1.1875v12.8965517h19v-17zm-16.4525862-14.8125h14.6551724v16.625h-11.7241379v1.1875h12.8965517v-19h-17v2.375h1.1724138zm7.4942529 23.1501623 2.0416666 2.0454546 4.375-4.3831169 2.9166667 2.9220779v6.0779221h-14v-1.987013zm.1133333 4.1340358 1.08-1.0188679-1.26-1.1886793-3.6 3.3962265v.3396226h12v-4.3018868l-1.8-1.6981132-5.58 5.2641509zm1.72-4.4716981c-.85 0-1.5-.65-1.5-1.5s.65-1.5 1.5-1.5 1.5.65 1.5 1.5-.65 1.5-1.5 1.5zm0-1c.3 0 .5-.2.5-.5s-.2-.5-.5-.5-.5.2-.5.5.2.5.5.5zm-14.9285714-1v.5555556c0 .6111111.5142857 1.1111111 1.1428571 1.1111111 1.2571429 0 2.2857143 1 2.2857143 2.2222222h-1.1428571c0-.6111111-.5142858-1.1111111-1.1428572-1.1111111-.4 0-.8-.1111111-1.1428571-.3333334v5.3333334c0 1.2222222-1.0285715 2.2222222-2.2857143 2.2222222-1.2571429 0-2.2857143-1-2.2857143-2.2222222s1.0285714-2.2222222 2.2857143-2.2222222c.4 0 .8.1111111 1.1428571.3333333v-5.8888889zm-1.5714286 8c0-.55-.45-1-1-1s-1 .45-1 1 .45 1 1 1 1-.45 1-1zm18-21-4.8 3h-1.2v-6h1.2545455zm-25-1v1h1v-1zm3 0v1h1v-1zm2 0v1h1v-1zm7 2h-12v1h12zm0 2h-12v1h12zm-12 3h9v-1h-9zm14 3h1v-1h-1z" fill="#fff" transform="translate(-36 -34)"/></svg>

<?xml version="1.0" encoding="UTF-8"?>
<svg width="36px" height="36px" viewBox="0 0 36 36" version="1.1" xmlns="http://www.w3.org/2000/svg" xmlns:xlink="http://www.w3.org/1999/xlink">
    <!-- Generator: Sketch 50.2 (55047) - http://www.bohemiancoding.com/sketch -->
    <title>cms-icon</title>
    <desc>Created with Sketch.</desc>
    <defs></defs>
    <g id="Landing-Page" stroke="none" stroke-width="1" fill="none" fill-rule="evenodd">
        <g id="landing-v24" transform="translate(-110.000000, -1959.000000)" fill="#FFFFFF" fill-rule="nonzero">
            <g id="03-cms" transform="translate(74.000000, 1877.000000)">
                <g id="copy" transform="translate(0.000000, 48.000000)">
                    <g id="Group-10">
                        <path d="M37.1875,52.8275862 L38.375,52.8275862 L38.375,54 L36,54 L36,37 L55,37 L55,49.8965517 L53.8125,49.8965517 L53.8125,38.1724138 L37.1875,38.1724138 L37.1875,52.8275862 Z M54.8275862,68.8125 L40.1724138,68.8125 L40.1724138,52.1875 L51.8965517,52.1875 L51.8965517,51 L39,51 L39,70 L56,70 L56,67.625 L54.8275862,67.625 L54.8275862,68.8125 Z M69.625,50 L69.625,51.1724138 L70.8125,51.1724138 L70.8125,65.8275862 L54.1875,65.8275862 L54.1875,54.1034483 L53,54.1034483 L53,67 L72,67 L72,50 L69.625,50 Z M53.1724138,35.1875 L67.8275862,35.1875 L67.8275862,51.8125 L56.1034483,51.8125 L56.1034483,53 L69,53 L69,34 L52,34 L52,36.375 L53.1724138,36.375 L53.1724138,35.1875 Z M60.6666667,58.3376623 L62.7083333,60.3831169 L67.0833333,56 L70,58.9220779 L70,65 L56,65 L56,63.012987 L60.6666667,58.3376623 Z M60.78,62.4716981 L61.86,61.4528302 L60.6,60.2641509 L57,63.6603774 L57,64 L69,64 L69,59.6981132 L67.2,58 L61.62,63.2641509 L60.78,62.4716981 Z M62.5,58 C61.65,58 61,57.35 61,56.5 C61,55.65 61.65,55 62.5,55 C63.35,55 64,55.65 64,56.5 C64,57.35 63.35,58 62.5,58 Z M62.5,57 C62.8,57 63,56.8 63,56.5 C63,56.2 62.8,56 62.5,56 C62.2,56 62,56.2 62,56.5 C62,56.8 62.2,57 62.5,57 Z M47.5714286,56 L47.5714286,56.5555556 C47.5714286,57.1666667 48.0857143,57.6666667 48.7142857,57.6666667 C49.9714286,57.6666667 51,58.6666667 51,59.8888889 L49.8571429,59.8888889 C49.8571429,59.2777778 49.3428571,58.7777778 48.7142857,58.7777778 C48.3142857,58.7777778 47.9142857,58.6666667 47.5714286,58.4444444 L47.5714286,63.7777778 C47.5714286,65 46.5428571,66 45.2857143,66 C44.0285714,66 43,65 43,63.7777778 C43,62.5555556 44.0285714,61.5555556 45.2857143,61.5555556 C45.6857143,61.5555556 46.0857143,61.6666667 46.4285714,61.8888889 L46.4285714,56 L47.5714286,56 Z M46,64 C46,63.45 45.55,63 45,63 C44.45,63 44,63.45 44,64 C44,64.55 44.45,65 45,65 C45.55,65 46,64.55 46,64 Z M64,43 L59.2,46 L58,46 L58,40 L59.2545455,40 L64,43 Z M39,42 L39,43 L40,43 L40,42 L39,42 Z M42,42 L42,43 L43,43 L43,42 L42,42 Z M44,42 L44,43 L45,43 L45,42 L44,42 Z M51,44 L39,44 L39,45 L51,45 L51,44 Z M51,46 L39,46 L39,47 L51,47 L51,46 Z M39,49 L48,49 L48,48 L39,48 L39,49 Z M53,52 L54,52 L54,51 L53,51 L53,52 Z" id="cms-icon"></path>
                    </g>
                </g>
            </g>
        </g>
    </g>
</svg>
